public/images/icons/spinning-cog.svg

<svg width="22" height="22" viewBox="0 0 22 22" fill="none" xmlns="http://www.w3.org/2000/svg">
<path d="M16.4579 8.08L16.1669 7.566C15.9469 7.177 15.8369 6.983 15.6489 6.906C15.4619 6.828 15.2499 6.889 14.8269 7.012L14.1069 7.218C13.8363 7.28103 13.5521 7.24483 13.3059 7.116L13.1069 7C12.8943 6.8605 12.7314 6.65705 12.6419 6.419L12.4449 5.821C12.3159 5.425 12.2509 5.227 12.0969 5.113C11.9429 4.999 11.7379 5 11.3299 5H10.6719C10.2619 5 10.0579 5 9.90392 5.113C9.74992 5.227 9.68492 5.425 9.55592 5.821L9.35892 6.419C9.26922 6.65668 9.10641 6.85976 8.89392 6.999L8.69492 7.116C8.44792 7.246 8.16492 7.281 7.89392 7.218L7.17392 7.012C6.75092 6.889 6.53892 6.828 6.35192 6.906C6.16392 6.983 6.05392 7.177 5.83392 7.566L5.54292 8.08C5.33692 8.444 5.23292 8.627 5.25292 8.82C5.27292 9.014 5.41192 9.17 5.68792 9.483L6.29592 10.175C6.44492 10.366 6.54992 10.7 6.54992 11C6.54992 11.3 6.44492 11.633 6.29592 11.825L5.68792 12.517C5.41192 12.829 5.27292 12.985 5.25292 13.179C5.23292 13.373 5.33692 13.556 5.54292 13.919L5.83392 14.434C6.05392 14.822 6.16392 15.017 6.35192 15.094C6.53892 15.172 6.75092 15.111 7.17392 14.988L7.89392 14.782C8.16452 14.719 8.44875 14.7552 8.69492 14.884L8.89392 15C9.10592 15.138 9.26792 15.342 9.35892 15.581L9.55592 16.18C9.68492 16.576 9.74992 16.773 9.90392 16.887C10.0579 17.001 10.2629 17 10.6719 17H11.3299C11.7399 17 11.9439 17 12.0979 16.887C12.2519 16.773 12.3169 16.576 12.4459 16.18L12.6429 15.581C12.7329 15.341 12.8959 15.138 13.1079 15.001L13.3069 14.884C13.5539 14.754 13.8369 14.719 14.1079 14.782L14.8279 14.988C15.2509 15.111 15.4629 15.172 15.6499 15.094C15.8379 15.017 15.9479 14.822 16.1679 14.434L16.4589 13.92C16.6649 13.556 16.7689 13.373 16.7489 13.18C16.7289 12.985 16.5899 12.83 16.3139 12.517L15.7059 11.825C15.5569 11.634 15.4519 11.3 15.4519 11C15.4519 10.7 15.5569 10.366 15.7059 10.175L16.3139 9.483C16.5899 9.171 16.7289 9.014 16.7479 8.821C16.7669 8.628 16.6649 8.444 16.4589 8.081" stroke="#000000" stroke-width="2" stroke-linecap="round" stroke-linejoin="round"/>
<path d="M11 12.75C11.9665 12.75 12.75 11.9665 12.75 11C12.75 10.0335 11.9665 9.25 11 9.25C10.0335 9.25 9.25 10.0335 9.25 11C9.25 11.9665 10.0335 12.75 11 12.75Z" stroke="#000000" stroke-width="2" stroke-linecap="round" stroke-linejoin="round"/>
<path d="M18 1.00001V3.85901C16.1326 2.02384 13.6182 0.996903 11 1.00001C5.477 1.00001 1 5.47701 1 11C0.999104 12.3764 1.28235 13.7381 1.832 15M4 21V18.141C5.86742 19.9762 8.38178 21.0031 11 21C16.523 21 21 16.523 21 11C21.0009 9.62362 20.7177 8.26187 20.168 7.00001" stroke="#000000" stroke-width="2" stroke-linecap="round" stroke-linejoin="round"/>
</svg>

<svg xmlns="http://www.w3.org/2000/svg" width="22" height="22" fill="none"><path stroke="#000" stroke-linecap="round" stroke-linejoin="round" stroke-width="2" d="m16.458 8.08-.291-.514c-.22-.389-.33-.583-.518-.66-.187-.078-.4-.017-.822.106l-.72.206a1.16 1.16 0 0 1-.801-.102l-.2-.116a1.2 1.2 0 0 1-.464-.581l-.197-.598c-.13-.396-.194-.594-.348-.708-.154-.114-.36-.113-.767-.113h-.658c-.41 0-.614 0-.768.113-.154.114-.22.312-.348.708l-.197.598a1.2 1.2 0 0 1-.465.58l-.2.117c-.246.13-.53.165-.8.102l-.72-.206c-.423-.123-.635-.184-.822-.106-.188.077-.298.271-.518.66l-.291.514c-.206.364-.31.547-.29.74.02.194.159.35.435.663l.608.692c.149.191.254.525.254.825 0 .3-.105.633-.254.825l-.608.692c-.276.312-.415.468-.435.662-.02.194.084.377.29.74l.29.515c.22.388.33.583.519.66.187.078.399.017.822-.106l.72-.206a1.16 1.16 0 0 1 .8.102l.2.116c.212.138.374.342.465.581l.197.599c.129.396.194.593.348.707.154.114.359.113.768.113h.658c.41 0 .614 0 .768-.113.154-.114.219-.311.348-.707l.197-.599c.09-.24.253-.443.465-.58l.199-.117c.247-.13.53-.165.8-.102l.72.206c.424.123.636.184.823.106.188-.077.298-.272.518-.66l.29-.514c.207-.364.31-.547.29-.74-.02-.195-.158-.35-.434-.663l-.608-.692c-.15-.191-.254-.525-.254-.825 0-.3.105-.634.254-.825l.608-.692c.276-.312.415-.469.434-.662.019-.193-.083-.377-.29-.74"/><path stroke="#000" stroke-linecap="round" stroke-linejoin="round" stroke-width="2" d="M11 12.75a1.75 1.75 0 1 0 0-3.5 1.75 1.75 0 0 0 0 3.5ZM18 1v2.859A9.97 9.97 0 0 0 11 1C5.477 1 1 5.477 1 11a10 10 0 0 0 .832 4M4 21v-2.859A9.97 9.97 0 0 0 11 21c5.523 0 10-4.477 10-10a10 10 0 0 0-.832-4"/></svg>
